X:23
T: GUGUK IM HAEFELE
N: E1020
O: Europa, Mitteleuropa, Deutschland; Frankreich, Elsass
R: Tanz - Lied, Staende - Lied, Musiker - Zunft
M: 3/8
L: 1/16
K: F
 | f2c2c2 | c3BA2
B2A2G2 | A4z2
f2c2c2 | c3BA2
B2A2G2 | A4z2
c2c2c2 | c3BA2
c2c2c2 | c3BA2
B2A2G2 | F4z2

